public/Cog.svg

<svg width="110" height="112" viewBox="0 0 110 112" fill="none" xmlns="http://www.w3.org/2000/svg">
<path d="M42.9573 2.19791C44.4054 1.80876 45.7876 1.45036 47.163 1.06517C49.9162 0.294785 52.7266 -0.0196929 55.5697 0.000950197C61.9633 0.0483855 67.9773 1.6445 73.4749 5.02294C82.9024 10.8162 88.6793 19.3163 90.8579 30.4175C91.1708 32.0136 90.8928 33.5794 90.6399 35.1369C89.3919 42.8175 86.0533 49.385 80.6897 54.8594C80.4739 55.0795 80.2509 55.2921 80.0295 55.5064C80.0061 55.5292 79.9729 55.5406 79.8801 55.5942C80.0972 54.8247 80.3041 54.1079 80.5016 53.3881C81.344 50.3092 81.805 47.1701 81.9233 43.9717C82.1306 38.3445 81.2806 32.8947 79.2386 27.6768C78.6822 26.2546 77.919 24.8746 77.0302 23.6448C74.9244 20.7289 72.8488 17.7606 70.4696 15.0898C64.577 8.47298 57.2213 4.48271 48.6549 2.90856C46.8088 2.56904 44.9273 2.43772 42.9573 2.19791ZM72.535 38.1398C66.2861 26.147 56.8769 18.596 43.875 16.1478C30.8782 13.7005 19.5207 17.3645 9.59863 26.2726C10.0618 25.4149 10.4934 24.5369 10.994 23.7032C16.5189 14.5003 24.3833 8.6087 34.6783 6.51496C45.0337 4.40936 54.6681 6.52813 63.3872 12.7255C64.2369 13.3298 64.9077 14.2509 65.5471 15.1148C69.1628 20.0033 71.4368 25.4957 72.2196 31.5968C72.4776 33.6084 72.4737 35.656 72.5848 37.687C72.5916 37.8174 72.5567 37.9501 72.535 38.1398ZM54.3101 30.7298C41.9463 26.8603 30.1533 28.181 19.4003 35.862C8.65618 43.5369 3.26796 54.4242 2.45832 67.8989C2.35488 67.5752 2.26974 67.3147 2.18801 67.0525C2.10075 66.7714 2.00923 66.4903 1.93218 66.2057C0.944608 62.5602 0.393781 58.8418 0.538512 55.061C0.904594 45.4874 4.22062 37.1555 10.6777 30.226C15.3895 25.1706 21.0681 21.7817 27.655 20.0371C28.7154 19.756 29.7919 19.4644 30.8757 19.3752C31.8386 19.2957 32.8317 19.4301 33.7967 19.5737C40.6982 20.6041 46.7743 23.4968 51.985 28.2829C52.8249 29.0542 53.5647 29.9405 54.3101 30.7298ZM83.8576 9.95358C87.8164 11.9454 91.2584 14.6027 94.2369 17.8946C99.1407 23.3132 102.249 29.6831 103.402 36.9948C104.989 47.0651 102.988 56.3585 97.2801 64.7172C96.536 65.806 95.379 66.6348 94.3106 67.4386C89.4634 71.0854 84.0339 73.2507 78.0773 73.9504C76.2784 74.1621 74.4574 74.1722 72.647 74.2126C84.1135 67.8123 91.5658 58.2554 93.9015 44.9577C96.2355 31.6702 92.5406 20.0384 83.8576 9.95358ZM37.094 38.3041C25.662 44.6402 18.2152 54.1729 15.8833 67.4583C13.5562 80.7125 17.2123 92.3337 25.8237 102.365L25.7386 102.494C24.1968 101.509 22.5975 100.606 21.123 99.5246C13.7222 94.0937 8.8456 86.8269 6.83002 77.6885C4.42495 66.7841 6.38306 56.6769 12.6094 47.4881C12.8189 47.1789 13.0964 46.9083 13.3782 46.6641C18.6468 42.0901 24.7017 39.3494 31.5346 38.5008C33.3719 38.2733 35.2338 38.2632 37.085 38.1534L37.094 38.3041ZM66.0856 109.818C65.0725 110.11 64.0649 110.425 63.0441 110.69C59.7805 111.538 56.4529 111.92 53.1029 111.711C40.6956 110.935 31.0353 105.169 24.1879 94.4679C21.5316 90.3169 19.8668 85.7253 19.121 80.8153C18.9478 79.676 19.1261 78.4532 19.2883 77.2902C20.1725 70.9444 22.5456 65.2416 26.4295 60.2367C27.4715 58.8949 28.6792 57.6893 29.8132 56.4235C29.8898 56.3383 29.9877 56.2741 30.0967 56.1828C26.3141 69.0487 27.6035 81.2159 35.0541 92.3092C42.5052 103.403 53.0624 108.966 66.0856 109.818ZM37.3958 74.0132C43.5732 85.8733 52.8232 93.5284 65.6744 95.9327C78.5298 98.3378 89.7958 94.5461 99.5766 85.6691C99.125 86.5124 98.7031 87.3741 98.2161 88.1946C93.034 96.9293 85.6748 102.726 76.0247 105.148C65.4317 107.807 55.5662 105.86 46.5581 99.4798C46.1337 99.1794 45.7476 98.7933 45.4164 98.3839C41.3512 93.3642 38.7992 87.6289 37.784 81.1658C37.4286 78.9056 37.3 76.6344 37.3609 74.3492C37.363 74.2631 37.3779 74.177 37.3958 74.0132ZM107.713 43.9216C108.143 45.8665 108.641 47.799 108.99 49.7588C109.558 52.9462 109.609 56.1727 109.302 59.3908C108.81 64.549 107.349 69.4106 104.853 73.9196C100.761 81.3116 94.9129 86.6793 87.3192 90.0138C84.7779 91.1299 82.143 91.9578 79.4097 92.332C78.3293 92.48 77.1864 92.314 76.0911 92.1519C70.7408 91.3613 65.834 89.373 61.384 86.2005C59.3815 84.7733 57.5315 83.1308 55.8651 81.3007C55.7778 81.2045 55.7016 81.0973 55.6199 80.9941C68.0671 84.8908 79.858 83.5753 90.6123 75.8979C101.356 68.2292 106.752 57.3471 107.556 43.9713L107.713 43.9216ZM40.4045 72.4039C42.7044 74.5605 45.2019 76.421 47.8917 78.0136C48.0573 78.1119 48.1952 78.2885 48.3029 78.4572C51.6011 83.6443 55.8332 87.8186 61.0154 90.966C61.1082 91.0223 61.1967 91.0868 61.2563 91.187C51.865 87.8147 44.9205 81.5422 40.4045 72.4039ZM69.5349 39.287C68.7912 38.6423 68.0846 37.943 67.2958 37.3628C65.662 36.1616 63.9827 35.0271 62.3281 33.8566C62.111 33.7028 61.879 33.5316 61.7386 33.3119C58.4672 28.1731 54.2807 24.0234 49.1611 20.8769C49.0487 20.8075 48.9397 20.7306 48.8657 20.6111C58.1772 23.9711 65.0669 30.1964 69.5349 39.287ZM89.6043 48.8268C86.2908 58.4843 80.2598 65.6242 71.4215 70.2592C71.5053 70.1468 71.5811 70.0277 71.6726 69.9232C73.5839 67.7447 75.2398 65.3773 76.662 62.8325C76.7918 62.6006 76.9791 62.3713 77.1936 62.2264C82.2337 58.8093 86.2904 54.4281 89.3514 49.0662C89.394 48.9919 89.4438 48.9221 89.4927 48.8523C89.4987 48.8435 89.5183 48.8461 89.6043 48.8268ZM38.5655 41.4581C37.5111 42.8504 36.4193 44.2216 35.407 45.6526C34.6923 46.6619 34.0968 47.7608 33.4225 48.8026C33.2233 49.1101 32.9764 49.4197 32.6827 49.6213C27.7831 52.9857 23.8099 57.2567 20.7965 62.475C20.7139 62.6186 20.6198 62.7548 20.4764 62.9805C23.0786 54.2972 29.8732 45.7479 38.5655 41.4581ZM25.8604 36.0228C34.7562 31.5582 43.9044 30.9419 53.2953 34.0705C50.5811 34.2229 47.8968 34.5966 45.2712 35.3161C44.3773 35.5607 43.5443 35.5577 42.6465 35.385C37.1097 34.3235 31.6061 34.5119 26.149 35.9705C26.0553 35.9956 25.9566 36.0057 25.8604 36.0228ZM33.274 57.3331C33.4825 59.111 33.6575 60.925 33.9227 62.7249C34.0938 63.8915 34.3722 65.0444 34.6523 66.1903C34.7753 66.695 34.7928 67.1654 34.6919 67.6722C33.9767 71.2593 33.6958 74.8872 34.0517 78.5305C34.2879 80.9471 34.734 83.3417 35.038 85.4205C33.9878 83.6614 31.8564 77.8585 31.4874 71.7543C31.1881 66.8114 31.7649 61.9941 33.274 57.3331ZM74.8541 25.9098C79.1522 35.2599 79.7541 44.7258 76.771 54.4277C76.5228 52.4578 76.2929 50.4791 76.0154 48.5079C75.8992 47.6844 75.7438 46.8543 75.4931 46.0654C75.2181 45.2002 75.2696 44.3775 75.4335 43.5092C76.2082 39.3911 76.3385 35.2476 75.7485 31.0939C75.5092 29.4113 75.1734 27.7427 74.8541 25.9098ZM56.6713 77.667C59.7677 77.5493 62.7938 76.9845 65.7927 76.1987C66.1852 76.096 66.6526 76.2453 67.0766 76.3296C72.7521 77.4584 78.3847 77.2506 83.9772 75.7652C84.0717 75.7397 84.1675 75.7204 84.2688 75.7485C75.3253 80.1991 66.1248 80.818 56.6713 77.6675" fill="#265597"/>
</svg>

<svg xmlns="http://www.w3.org/2000/svg" width="110" height="112" fill="none" viewBox="0 0 110 112"><path fill="#265597" d="M42.957 2.198c1.448-.39 2.83-.748 4.206-1.133C49.916.295 52.727-.02 55.57.001c6.393.047 12.407 1.644 17.905 5.022 9.427 5.793 15.204 14.293 17.383 25.395.313 1.596.035 3.161-.218 4.719-1.248 7.68-4.587 14.248-9.95 19.722-.216.22-.44.433-.66.647-.024.023-.057.035-.15.088.217-.77.424-1.486.622-2.206a41.3 41.3 0 0 0 1.421-9.416c.208-5.628-.642-11.077-2.684-16.295a18.4 18.4 0 0 0-2.209-4.032c-2.106-2.916-4.181-5.884-6.56-8.555C64.577 8.473 57.22 4.483 48.655 2.909c-1.846-.34-3.728-.471-5.698-.711M72.535 38.14c-6.249-11.993-15.658-19.544-28.66-21.992C30.878 13.7 19.521 17.365 9.599 26.273c.463-.858.894-1.736 1.395-2.57C16.519 14.5 24.384 8.61 34.678 6.515c10.356-2.106 19.99.013 28.71 6.21.849.605 1.52 1.526 2.16 2.39 3.615 4.888 5.889 10.38 6.672 16.482.258 2.011.254 4.059.365 6.09.007.13-.028.263-.05.453M54.31 30.73c-12.364-3.87-24.157-2.549-34.91 5.132C8.656 43.537 3.268 54.424 2.458 67.899c-.103-.324-.188-.584-.27-.847-.087-.28-.179-.562-.256-.846C.945 62.56.394 58.842.54 55.06c.366-9.574 3.682-17.905 10.139-24.835 4.711-5.055 10.39-8.444 16.977-10.189 1.06-.281 2.137-.573 3.22-.662.964-.08 1.957.055 2.922.199 6.901 1.03 12.977 3.923 18.188 8.709.84.771 1.58 1.657 2.325 2.447M83.858 9.954c3.958 1.991 7.4 4.649 10.379 7.94 4.904 5.42 8.012 11.79 9.165 19.1 1.587 10.071-.414 19.365-6.122 27.723-.744 1.089-1.901 1.918-2.97 2.722-4.847 3.646-10.276 5.812-16.233 6.511-1.799.212-3.62.222-5.43.263 11.466-6.4 18.919-15.958 21.254-29.255 2.335-13.288-1.36-24.92-10.043-35.004m-46.764 28.35c-11.432 6.336-18.879 15.869-21.21 29.154-2.328 13.255 1.328 24.876 9.94 34.907l-.085.129c-1.542-.985-3.142-1.888-4.616-2.97-7.4-5.43-12.277-12.697-14.293-21.835-2.405-10.905-.447-21.012 5.78-30.2.209-.31.486-.58.768-.825 5.269-4.574 11.324-7.315 18.157-8.163 1.837-.228 3.699-.238 5.55-.348zm28.992 71.514c-1.013.292-2.021.607-3.042.872-3.263.848-6.591 1.23-9.941 1.021-12.407-.776-22.068-6.542-28.915-17.243-2.656-4.151-4.321-8.743-5.067-13.653-.173-1.139.005-2.362.167-3.525.884-6.346 3.258-12.048 7.142-17.053 1.041-1.342 2.25-2.548 3.383-3.814.077-.085.175-.149.284-.24-3.783 12.866-2.494 25.033 4.957 36.126 7.451 11.094 18.008 16.657 31.032 17.509m-28.69-35.805c6.177 11.86 15.427 19.515 28.278 21.92 12.856 2.405 24.122-1.387 33.903-10.264-.452.843-.874 1.705-1.36 2.526-5.183 8.734-12.542 14.531-22.192 16.953-10.593 2.659-20.459.712-29.467-5.668-.424-.3-.81-.687-1.142-1.096-4.065-5.02-6.617-10.755-7.632-17.218a37.4 37.4 0 0 1-.423-6.817c.002-.086.017-.172.035-.336m70.317-30.091c.43 1.945.928 3.877 1.277 5.837.568 3.187.619 6.414.312 9.632-.492 5.158-1.953 10.02-4.449 14.529-4.092 7.392-9.94 12.76-17.534 16.094-2.541 1.116-5.176 1.944-7.91 2.318-1.08.148-2.223-.018-3.318-.18-5.35-.79-10.257-2.779-14.707-5.951a34.7 34.7 0 0 1-5.519-4.9c-.087-.097-.163-.204-.245-.307 12.447 3.897 24.238 2.581 34.992-5.096 10.744-7.669 16.14-18.55 16.944-31.927zM40.405 72.404a42.7 42.7 0 0 0 7.487 5.61c.165.098.303.275.41.443 3.3 5.187 7.531 9.362 12.713 12.509a.66.66 0 0 1 .241.221c-9.391-3.372-16.336-9.645-20.851-18.783m29.13-33.117c-.744-.645-1.45-1.344-2.24-1.924-1.633-1.201-3.312-2.336-4.967-3.506-.217-.154-.449-.325-.59-.545-3.27-5.139-7.457-9.289-12.577-12.435a.85.85 0 0 1-.295-.266q13.966 5.04 20.669 18.676m20.07 9.54C86.29 58.484 80.26 65.624 71.42 70.259c.084-.112.16-.231.252-.336a41 41 0 0 0 4.989-7.09c.13-.232.317-.462.532-.607 5.04-3.417 9.096-7.798 12.157-13.16.043-.074.093-.144.142-.214.006-.008.025-.006.111-.025m-51.04-7.369c-1.054 1.392-2.146 2.764-3.158 4.195-.715 1.009-1.31 2.108-1.984 3.15-.2.307-.447.617-.74.818a39.14 39.14 0 0 0-11.886 12.854c-.083.144-.177.28-.32.505 2.602-8.683 9.396-17.232 18.089-21.522M25.86 36.023c8.896-4.465 18.044-5.081 27.435-1.953-2.714.153-5.398.527-8.024 1.246-.894.245-1.727.242-2.624.069-5.537-1.061-11.04-.873-16.498.586-.094.025-.192.035-.289.052m7.414 21.31c.209 1.778.383 3.592.649 5.392.17 1.166.45 2.32.73 3.465.122.505.14.975.039 1.482-.715 3.587-.996 7.215-.64 10.859.236 2.416.682 4.81.986 6.89-1.05-1.76-3.182-7.562-3.55-13.667-.3-4.943.277-9.76 1.786-14.42m41.58-31.423c4.298 9.35 4.9 18.816 1.917 28.518-.248-1.97-.478-3.949-.756-5.92-.116-.824-.271-1.654-.522-2.443-.275-.865-.223-1.687-.06-2.556.775-4.118.905-8.261.316-12.415-.24-1.683-.576-3.351-.895-5.184M56.671 77.667c3.097-.118 6.123-.683 9.122-1.468.392-.103.86.046 1.284.13 5.675 1.13 11.308.922 16.9-.564a.54.54 0 0 1 .292-.016c-8.944 4.45-18.144 5.069-27.598 1.919"/></svg>
